X: 6743
T: Champion, The
R: jig
M: 6/8
K: Bminor
|:FBc dcB|fBc dcB|fgf f2 e|fgf edc|
FBc dcB|fBc dcB|fgf edc|1 dBB BAG:|2 dBB B3||
|:A3 G3|FAd fed|cBA gfe|dfe dcB|
ABA GAG|FAd fed|cBA gfe|1 dfe dcB:|2 dfe d3||

